src/images/courses/css/card.svg

<svg width="640" height="320" viewBox="0 0 640 320" fill="none" xmlns="http://www.w3.org/2000/svg">
<g clip-path="url(#clip0)">
<g clip-path="url(#clip1)">
<circle cx="321.496" cy="10" r="60" fill="#CCEEFF"/>
<circle cx="432.488" cy="110.487" r="15.4872" fill="#DDEEDD"/>
<circle cx="274.487" cy="248.487" r="15.4872" fill="#FFDDFF"/>
<path d="M149.144 57.3579L186.058 88.3328L140.776 104.814L149.144 57.3579Z" fill="#FFDDEE"/>
<path d="M559.031 5.44895L559.031 64.6119L507.794 35.0304L559.031 5.44895Z" fill="#FFEEDD"/>
<rect x="581.474" y="167.786" width="49.5591" height="49.5591" transform="rotate(-15 581.474 167.786)" fill="#FFDDFF"/>
<rect x="402.002" y="248.788" width="120" height="120" fill="#DDEEDD"/>
<circle cx="329.496" cy="18" r="59.5" stroke="#66CCFF"/>
<circle cx="440.488" cy="118.487" r="14.9872" stroke="#99DD33"/>
<circle cx="282.487" cy="256.487" r="14.9872" stroke="#CC66FF"/>
<path d="M149.419 112.048L157.486 66.2975L193.073 96.1591L149.419 112.048Z" stroke="#FF66CC"/>
<path d="M516.794 43.0304L566.531 14.315L566.531 71.7459L516.794 43.0304Z" stroke="#FFCC66"/>
<rect x="590.086" y="176.14" width="48.5591" height="48.5591" transform="rotate(-15 590.086 176.14)" stroke="#CC66FF"/>
<rect x="410.502" y="257.288" width="119" height="119" stroke="#99DD33"/>
</g>
<path d="M24 140H30.1202V173.279H46.8962V179.126H24V140Z" fill="#3C4043"/>
<path d="M63.7596 180C61.1003 180 58.6959 179.381 56.5465 178.142C54.4336 176.903 52.776 175.191 51.5739 173.005C50.3717 170.783 49.7706 168.306 49.7706 165.574C49.7706 162.951 50.3352 160.546 51.4646 158.361C52.6303 156.138 54.2514 154.39 56.328 153.115C58.4045 151.803 60.7724 151.148 63.4318 151.148C66.164 151.148 68.532 151.749 70.5356 152.951C72.5757 154.153 74.1239 155.829 75.1804 157.978C76.2369 160.091 76.7651 162.532 76.7651 165.301C76.7651 165.628 76.7469 165.956 76.7105 166.284C76.674 166.612 76.6558 166.794 76.6558 166.831H55.7815C55.9637 169.308 56.8562 171.22 58.4591 172.568C60.062 173.916 61.8835 174.59 63.9236 174.59C67.0565 174.59 69.4609 173.133 71.1367 170.219L76.2733 172.678C75.0711 174.9 73.3953 176.685 71.246 178.033C69.1331 179.344 66.6376 180 63.7596 180ZM70.6449 162.24C70.572 161.366 70.2806 160.474 69.7706 159.563C69.2606 158.652 68.4591 157.887 67.3662 157.268C66.3097 156.612 64.98 156.284 63.3771 156.284C61.5921 156.284 60.0438 156.831 58.7323 157.923C57.4573 159.016 56.583 160.455 56.1094 162.24H70.6449Z" fill="#3C4043"/>
<path d="M90.8857 180C88.9549 180 87.2062 179.617 85.6398 178.852C84.1097 178.051 82.8893 176.958 81.9786 175.574C81.1042 174.153 80.6671 172.55 80.6671 170.765C80.6671 167.923 81.7236 165.683 83.8365 164.044C85.9859 162.404 88.6999 161.585 91.9786 161.585C94.8565 161.585 97.3155 162.077 99.3556 163.06V161.913C99.3556 160.273 98.6999 158.925 97.3884 157.869C96.1133 156.776 94.5651 156.23 92.7436 156.23C89.9749 156.23 87.7527 157.359 86.0769 159.617L81.4868 156.448C82.7618 154.736 84.3465 153.424 86.2409 152.514C88.1716 151.603 90.3392 151.148 92.7436 151.148C96.7144 151.148 99.7746 152.149 101.924 154.153C104.11 156.12 105.203 158.907 105.203 162.514V179.126H99.3556V175.792H99.0277C98.1534 177.031 97.0423 178.051 95.6944 178.852C94.3465 179.617 92.7436 180 90.8857 180ZM91.8693 175.027C93.2172 175.027 94.4558 174.699 95.5851 174.044C96.7509 173.352 97.6616 172.459 98.3174 171.366C99.0095 170.237 99.3556 169.035 99.3556 167.76C97.4248 166.703 95.3665 166.175 93.1807 166.175C91.1771 166.175 89.6106 166.612 88.4813 167.486C87.352 168.361 86.7873 169.472 86.7873 170.82C86.7873 172.058 87.2791 173.078 88.2627 173.88C89.2828 174.645 90.4849 175.027 91.8693 175.027Z" fill="#3C4043"/>
<path d="M111.549 152.022H117.232V156.066H117.56C118.142 154.681 119.199 153.534 120.729 152.623C122.259 151.676 123.826 151.202 125.428 151.202C126.74 151.202 127.815 151.384 128.652 151.749V158.033C127.414 157.413 126.03 157.104 124.499 157.104C122.532 157.104 120.875 157.869 119.527 159.399C118.215 160.893 117.56 162.732 117.56 164.918V179.126H111.549V152.022Z" fill="#3C4043"/>
<path d="M133.054 152.022H138.737V155.628H139.065C139.867 154.317 141.033 153.242 142.563 152.404C144.093 151.566 145.75 151.148 147.535 151.148C150.887 151.148 153.419 152.131 155.131 154.098C156.88 156.066 157.754 158.78 157.754 162.24V179.126H151.743V163.06C151.743 158.798 149.757 156.667 145.787 156.667C143.783 156.667 142.162 157.468 140.923 159.071C139.685 160.674 139.065 162.568 139.065 164.754V179.126H133.054V152.022Z" fill="#3C4043"/>
<path d="M189.7 180C185.993 180 182.606 179.127 179.54 177.38C176.51 175.633 174.121 173.244 172.374 170.214C170.627 167.148 169.754 163.743 169.754 160C169.754 156.257 170.627 152.87 172.374 149.84C174.121 146.774 176.51 144.367 179.54 142.62C182.606 140.873 185.993 140 189.7 140C195.44 140 200.164 142.086 203.871 146.257L199.647 150.374C198.328 148.806 196.848 147.647 195.208 146.898C193.604 146.114 191.768 145.722 189.7 145.722C187.134 145.722 184.781 146.31 182.642 147.487C180.538 148.663 178.863 150.339 177.615 152.513C176.403 154.652 175.797 157.148 175.797 160C175.797 162.852 176.403 165.365 177.615 167.54C178.863 169.679 180.538 171.337 182.642 172.513C184.781 173.69 187.134 174.278 189.7 174.278C193.978 174.278 197.615 172.496 200.609 168.93L204.941 173.102C203.123 175.276 200.895 176.97 198.257 178.182C195.654 179.394 192.802 180 189.7 180Z" fill="url(#paint0_linear)"/>
<path d="M222.49 180C219.317 180 216.465 179.073 213.934 177.219C211.403 175.365 209.656 172.763 208.693 169.412L214.362 167.112C214.932 169.216 215.93 170.945 217.356 172.299C218.818 173.619 220.565 174.278 222.597 174.278C224.486 174.278 226.091 173.797 227.41 172.834C228.729 171.836 229.388 170.481 229.388 168.77C229.388 167.201 228.8 165.918 227.624 164.92C226.483 163.886 224.468 162.852 221.581 161.818L219.174 160.963C216.608 160.071 214.451 158.788 212.704 157.112C210.957 155.437 210.083 153.226 210.083 150.481C210.083 148.592 210.6 146.845 211.634 145.241C212.668 143.636 214.094 142.371 215.912 141.444C217.766 140.481 219.852 140 222.169 140C225.52 140 228.194 140.82 230.19 142.46C232.187 144.064 233.524 145.882 234.201 147.914L228.8 150.214C228.408 149.002 227.659 147.932 226.554 147.005C225.449 146.078 224.023 145.615 222.276 145.615C220.529 145.615 219.05 146.061 217.837 146.952C216.661 147.843 216.073 148.984 216.073 150.374C216.073 151.693 216.608 152.781 217.677 153.636C218.747 154.492 220.422 155.312 222.704 156.096L225.11 156.898C228.39 158.039 230.921 159.537 232.704 161.39C234.522 163.209 235.431 165.651 235.431 168.717C235.431 171.212 234.789 173.316 233.506 175.027C232.223 176.702 230.583 177.95 228.586 178.77C226.625 179.59 224.593 180 222.49 180Z" fill="url(#paint1_linear)"/>
<path d="M253.145 180C249.972 180 247.12 179.073 244.588 177.219C242.057 175.365 240.31 172.763 239.348 169.412L245.016 167.112C245.587 169.216 246.585 170.945 248.011 172.299C249.473 173.619 251.219 174.278 253.252 174.278C255.141 174.278 256.745 173.797 258.064 172.834C259.383 171.836 260.043 170.481 260.043 168.77C260.043 167.201 259.455 165.918 258.278 164.92C257.137 163.886 255.123 162.852 252.235 161.818L249.829 160.963C247.262 160.071 245.105 158.788 243.358 157.112C241.612 155.437 240.738 153.226 240.738 150.481C240.738 148.592 241.255 146.845 242.289 145.241C243.323 143.636 244.749 142.371 246.567 141.444C248.421 140.481 250.506 140 252.824 140C256.175 140 258.849 140.82 260.845 142.46C262.842 144.064 264.178 145.882 264.856 147.914L259.455 150.214C259.063 149.002 258.314 147.932 257.209 147.005C256.104 146.078 254.678 145.615 252.931 145.615C251.184 145.615 249.704 146.061 248.492 146.952C247.316 147.843 246.727 148.984 246.727 150.374C246.727 151.693 247.262 152.781 248.332 153.636C249.401 154.492 251.077 155.312 253.358 156.096L255.765 156.898C259.045 158.039 261.576 159.537 263.358 161.39C265.177 163.209 266.086 165.651 266.086 168.717C266.086 171.212 265.444 173.316 264.161 175.027C262.877 176.702 261.237 177.95 259.241 178.77C257.28 179.59 255.248 180 253.145 180Z" fill="url(#paint2_linear)"/>
<path d="M272.462 152.46V140.856H278.452V152.46L277.81 166.684H273.051L272.462 152.46ZM275.457 179.465C274.316 179.465 273.336 179.073 272.516 178.289C271.731 177.469 271.339 176.488 271.339 175.348C271.339 174.207 271.731 173.244 272.516 172.46C273.336 171.676 274.316 171.283 275.457 171.283C276.598 171.283 277.56 171.676 278.345 172.46C279.129 173.244 279.521 174.207 279.521 175.348C279.521 176.488 279.129 177.469 278.345 178.289C277.56 179.073 276.598 179.465 275.457 179.465Z" fill="url(#paint3_linear)"/>
</g>
<defs>
<linearGradient id="paint0_linear" x1="169.754" y1="180" x2="282.916" y2="156.016" gradientUnits="userSpaceOnUse">
<stop offset="0.0677083" stop-color="#9933FF"/>
<stop offset="0.34375" stop-color="#0066FF"/>
<stop offset="0.619792" stop-color="#3399FF"/>
<stop offset="0.911458" stop-color="#33CC00"/>
</linearGradient>
<linearGradient id="paint1_linear" x1="169.754" y1="180" x2="282.916" y2="156.016" gradientUnits="userSpaceOnUse">
<stop offset="0.0677083" stop-color="#9933FF"/>
<stop offset="0.34375" stop-color="#0066FF"/>
<stop offset="0.619792" stop-color="#3399FF"/>
<stop offset="0.911458" stop-color="#33CC00"/>
</linearGradient>
<linearGradient id="paint2_linear" x1="169.754" y1="180" x2="282.916" y2="156.016" gradientUnits="userSpaceOnUse">
<stop offset="0.0677083" stop-color="#9933FF"/>
<stop offset="0.34375" stop-color="#0066FF"/>
<stop offset="0.619792" stop-color="#3399FF"/>
<stop offset="0.911458" stop-color="#33CC00"/>
</linearGradient>
<linearGradient id="paint3_linear" x1="169.754" y1="180" x2="282.916" y2="156.016" gradientUnits="userSpaceOnUse">
<stop offset="0.0677083" stop-color="#9933FF"/>
<stop offset="0.34375" stop-color="#0066FF"/>
<stop offset="0.619792" stop-color="#3399FF"/>
<stop offset="0.911458" stop-color="#33CC00"/>
</linearGradient>
<clipPath id="clip0">
<rect width="640" height="320" fill="white"/>
</clipPath>
<clipPath id="clip1">
<rect width="640" height="640" fill="white" transform="translate(0 -160)"/>
</clipPath>
</defs>
</svg>

<svg width="640" height="320" viewBox="0 0 640 320" fill="none" xmlns="http://www.w3.org/2000/svg"><g clip-path="url(#a)"><g clip-path="url(#b)"><circle cx="321.496" cy="10" r="60" fill="#CEF"/><circle cx="432.488" cy="110.487" r="15.487" fill="#DED"/><circle cx="274.487" cy="248.487" r="15.487" fill="#FDF"/><path d="m149.144 57.358 36.914 30.975-45.282 16.481 8.368-47.456z" fill="#FDE"/><path d="M559.031 5.449v59.163L507.794 35.03 559.031 5.45z" fill="#FED"/><path fill="#FDF" d="m581.474 167.786 47.87-12.827 12.827 47.87-47.87 12.827z"/><path fill="#DED" d="M402.002 248.788h120v120h-120z"/><circle cx="329.496" cy="18" r="59.5" stroke="#6CF"/><circle cx="440.488" cy="118.487" r="14.987" stroke="#9D3"/><circle cx="282.487" cy="256.487" r="14.987" stroke="#C6F"/><path d="m149.419 112.048 8.067-45.75 35.587 29.861-43.654 15.889z" stroke="#F6C"/><path d="m516.794 43.03 49.737-28.715v57.43L516.794 43.03z" stroke="#FC6"/><path stroke="#C6F" d="m590.086 176.14 46.904-12.568 12.568 46.904-46.904 12.568z"/><path stroke="#9D3" d="M410.502 257.288h119v119h-119z"/></g><path d="M24 140h6.12v33.279h16.776v5.847H24V140zM63.76 180c-2.66 0-5.064-.619-7.213-1.858-2.113-1.239-3.771-2.951-4.973-5.137-1.202-2.222-1.803-4.699-1.803-7.431 0-2.623.564-5.028 1.694-7.213 1.165-2.223 2.786-3.971 4.863-5.246 2.076-1.312 4.444-1.967 7.104-1.967 2.732 0 5.1.601 7.104 1.803 2.04 1.202 3.588 2.878 4.644 5.027 1.057 2.113 1.585 4.554 1.585 7.323 0 .327-.018.655-.055.983-.036.328-.054.51-.054.547H55.78c.183 2.477 1.075 4.389 2.678 5.737 1.603 1.348 3.424 2.022 5.465 2.022 3.133 0 5.537-1.457 7.213-4.371l5.136 2.459a14.196 14.196 0 0 1-5.027 5.355C69.133 179.344 66.638 180 63.76 180zm6.885-17.76c-.073-.874-.364-1.766-.874-2.677s-1.312-1.676-2.405-2.295c-1.056-.656-2.386-.984-3.989-.984-1.785 0-3.333.547-4.645 1.639-1.275 1.093-2.149 2.532-2.623 4.317h14.536zM90.886 180c-1.931 0-3.68-.383-5.246-1.148-1.53-.801-2.75-1.894-3.661-3.278-.875-1.421-1.312-3.024-1.312-4.809 0-2.842 1.057-5.082 3.17-6.721 2.149-1.64 4.863-2.459 8.142-2.459 2.877 0 5.337.492 7.377 1.475v-1.147c0-1.64-.656-2.988-1.968-4.044-1.275-1.093-2.823-1.639-4.644-1.639-2.77 0-4.991 1.129-6.667 3.387l-4.59-3.169a12.722 12.722 0 0 1 4.754-3.934c1.93-.911 4.098-1.366 6.503-1.366 3.97 0 7.03 1.001 9.18 3.005 2.186 1.967 3.279 4.754 3.279 8.361v16.612h-5.847v-3.334h-.328a10.735 10.735 0 0 1-3.334 3.06c-1.347.765-2.95 1.148-4.808 1.148zm.983-4.973a7.275 7.275 0 0 0 3.716-.983c1.166-.692 2.077-1.585 2.732-2.678.693-1.129 1.039-2.331 1.039-3.606a12.664 12.664 0 0 0-6.175-1.585c-2.004 0-3.57.437-4.7 1.311-1.129.875-1.694 1.986-1.694 3.334 0 1.238.492 2.258 1.476 3.06 1.02.765 2.222 1.147 3.606 1.147zM111.549 152.022h5.683v4.044h.328c.582-1.385 1.639-2.532 3.169-3.443 1.53-.947 3.097-1.421 4.699-1.421 1.312 0 2.387.182 3.224.547v6.284c-1.238-.62-2.622-.929-4.153-.929-1.967 0-3.624.765-4.972 2.295-1.312 1.494-1.967 3.333-1.967 5.519v14.208h-6.011v-27.104zM133.054 152.022h5.683v3.606h.328c.802-1.311 1.968-2.386 3.498-3.224 1.53-.838 3.187-1.256 4.972-1.256 3.352 0 5.884.983 7.596 2.95 1.749 1.968 2.623 4.682 2.623 8.142v16.886h-6.011V163.06c0-4.262-1.986-6.393-5.956-6.393-2.004 0-3.625.801-4.864 2.404-1.238 1.603-1.858 3.497-1.858 5.683v14.372h-6.011v-27.104z" fill="#3C4043"/><path d="M189.7 180c-3.707 0-7.094-.873-10.16-2.62a19.208 19.208 0 0 1-7.166-7.166c-1.747-3.066-2.62-6.471-2.62-10.214 0-3.743.873-7.13 2.62-10.16 1.747-3.066 4.136-5.473 7.166-7.22 3.066-1.747 6.453-2.62 10.16-2.62 5.74 0 10.464 2.086 14.171 6.257l-4.224 4.117c-1.319-1.568-2.799-2.727-4.439-3.476-1.604-.784-3.44-1.176-5.508-1.176-2.566 0-4.919.588-7.058 1.765-2.104 1.176-3.779 2.852-5.027 5.026-1.212 2.139-1.818 4.635-1.818 7.487 0 2.852.606 5.365 1.818 7.54 1.248 2.139 2.923 3.797 5.027 4.973 2.139 1.177 4.492 1.765 7.058 1.765 4.278 0 7.915-1.782 10.909-5.348l4.332 4.172c-1.818 2.174-4.046 3.868-6.684 5.08-2.603 1.212-5.455 1.818-8.557 1.818z" fill="url(#c)"/><path d="M222.49 180c-3.173 0-6.025-.927-8.556-2.781-2.531-1.854-4.278-4.456-5.241-7.807l5.669-2.3c.57 2.104 1.568 3.833 2.994 5.187 1.462 1.32 3.209 1.979 5.241 1.979 1.889 0 3.494-.481 4.813-1.444 1.319-.998 1.978-2.353 1.978-4.064 0-1.569-.588-2.852-1.764-3.85-1.141-1.034-3.156-2.068-6.043-3.102l-2.407-.855c-2.566-.892-4.723-2.175-6.47-3.851-1.747-1.675-2.621-3.886-2.621-6.631 0-1.889.517-3.636 1.551-5.24 1.034-1.605 2.46-2.87 4.278-3.797 1.854-.963 3.94-1.444 6.257-1.444 3.351 0 6.025.82 8.021 2.46 1.997 1.604 3.334 3.422 4.011 5.454l-5.401 2.3c-.392-1.212-1.141-2.282-2.246-3.209s-2.531-1.39-4.278-1.39c-1.747 0-3.226.446-4.439 1.337-1.176.891-1.764 2.032-1.764 3.422 0 1.319.535 2.407 1.604 3.262 1.07.856 2.745 1.676 5.027 2.46l2.406.802c3.28 1.141 5.811 2.639 7.594 4.492 1.818 1.819 2.727 4.261 2.727 7.327 0 2.495-.642 4.599-1.925 6.31-1.283 1.675-2.923 2.923-4.92 3.743a15.652 15.652 0 0 1-6.096 1.23z" fill="url(#d)"/><path d="M253.145 180c-3.173 0-6.025-.927-8.557-2.781-2.531-1.854-4.278-4.456-5.24-7.807l5.668-2.3c.571 2.104 1.569 3.833 2.995 5.187 1.462 1.32 3.208 1.979 5.241 1.979 1.889 0 3.493-.481 4.812-1.444 1.319-.998 1.979-2.353 1.979-4.064 0-1.569-.588-2.852-1.765-3.85-1.141-1.034-3.155-2.068-6.043-3.102l-2.406-.855c-2.567-.892-4.724-2.175-6.471-3.851-1.746-1.675-2.62-3.886-2.62-6.631 0-1.889.517-3.636 1.551-5.24 1.034-1.605 2.46-2.87 4.278-3.797 1.854-.963 3.939-1.444 6.257-1.444 3.351 0 6.025.82 8.021 2.46 1.997 1.604 3.333 3.422 4.011 5.454l-5.401 2.3c-.392-1.212-1.141-2.282-2.246-3.209s-2.531-1.39-4.278-1.39c-1.747 0-3.227.446-4.439 1.337-1.176.891-1.765 2.032-1.765 3.422 0 1.319.535 2.407 1.605 3.262 1.069.856 2.745 1.676 5.026 2.46l2.407.802c3.28 1.141 5.811 2.639 7.593 4.492 1.819 1.819 2.728 4.261 2.728 7.327 0 2.495-.642 4.599-1.925 6.31-1.284 1.675-2.924 2.923-4.92 3.743a15.652 15.652 0 0 1-6.096 1.23z" fill="url(#e)"/><path d="M272.462 152.46v-11.604h5.99v11.604l-.642 14.224h-4.759l-.589-14.224zm2.995 27.005c-1.141 0-2.121-.392-2.941-1.176-.785-.82-1.177-1.801-1.177-2.941 0-1.141.392-2.104 1.177-2.888.82-.784 1.8-1.177 2.941-1.177 1.141 0 2.103.393 2.888 1.177.784.784 1.176 1.747 1.176 2.888 0 1.14-.392 2.121-1.176 2.941-.785.784-1.747 1.176-2.888 1.176z" fill="url(#f)"/></g><defs><linearGradient id="c" x1="169.754" y1="180" x2="282.916" y2="156.016" gradientUnits="userSpaceOnUse"><stop offset=".068" stop-color="#93F"/><stop offset=".344" stop-color="#06F"/><stop offset=".62" stop-color="#39F"/><stop offset=".911" stop-color="#3C0"/></linearGradient><linearGradient id="d" x1="169.754" y1="180" x2="282.916" y2="156.016" gradientUnits="userSpaceOnUse"><stop offset=".068" stop-color="#93F"/><stop offset=".344" stop-color="#06F"/><stop offset=".62" stop-color="#39F"/><stop offset=".911" stop-color="#3C0"/></linearGradient><linearGradient id="e" x1="169.754" y1="180" x2="282.916" y2="156.016" gradientUnits="userSpaceOnUse"><stop offset=".068" stop-color="#93F"/><stop offset=".344" stop-color="#06F"/><stop offset=".62" stop-color="#39F"/><stop offset=".911" stop-color="#3C0"/></linearGradient><linearGradient id="f" x1="169.754" y1="180" x2="282.916" y2="156.016" gradientUnits="userSpaceOnUse"><stop offset=".068" stop-color="#93F"/><stop offset=".344" stop-color="#06F"/><stop offset=".62" stop-color="#39F"/><stop offset=".911" stop-color="#3C0"/></linearGradient><clipPath id="a"><path fill="#fff" d="M0 0h640v320H0z"/></clipPath><clipPath id="b"><path fill="#fff" transform="translate(0 -160)" d="M0 0h640v640H0z"/></clipPath></defs></svg>
